icons/folder_type_devcontainer_opened.svg

<svg xmlns="http://www.w3.org/2000/svg" viewBox="0 0 32 32"><path d="M27.4 5.5h-9.2l-2.1 4.2H4.3v4H.5l3.8 12.8h25.2v-21Zm-7.2 2.1h7.1v2.1h-8.1Zm5.5 6.1H6.6v-1.9h20.8v7.626Z" style="fill:#7baddb"/><circle cx="21" cy="21" r="10" style="fill:#193e63"/><path d="m17.269 25.816-1.024-.996 2.419-2.488-2.417-2.462 1.02-1.001 3.394 3.459-3.392 3.488zM24.872 23.215l1.024-.996-2.419-2.488 2.417-2.462-1.02-1.001-3.394 3.459 3.392 3.488z" style="fill:#add1ea"/></svg>

<svg xmlns="http://www.w3.org/2000/svg" viewBox="0 0 32 32"><title>folder_type_devcontainer_opened</title><path d="M27.4,5.5H18.2L16.1,9.7H4.3v4H.5L4.3,26.5H29.5V5.5ZM20.2,7.6h7.1V9.7H19.2Zm5.5,6.1H6.6V11.8H27.4v7.626Z" style="fill:#7baddb"/><circle cx="21" cy="21" r="10" style="fill:#193e63"/><polygon points="17.269 25.816 16.245 24.82 18.664 22.332 16.247 19.87 17.267 18.869 20.661 22.328 17.269 25.816" style="fill:#add1ea"/><polygon points="24.872 23.215 25.896 22.219 23.477 19.731 25.894 17.269 24.874 16.268 21.48 19.727 24.872 23.215" style="fill:#add1ea"/></svg>
